build/img/07.svg

<svg width="122" height="84" viewBox="0 0 122 84" fill="none" xmlns="http://www.w3.org/2000/svg">
<path d="M78.0732 79.6218L77.5098 81.0002H78.9989H94.4339H95.1065L95.3601 80.3772L120.665 18.2172L120.739 18.0359V17.8402V4.40019V3.40019H119.739H72.0689H71.0689V4.40019V17.8402V18.8402H72.0689H102.92L78.0732 79.6218ZM15.2144 5.46956L15.7019 6.34269L15.2144 5.46957C10.8527 7.9049 7.44665 11.3109 5.01132 15.6727C2.57037 20.0446 1.36694 25.1178 1.36694 30.8602V53.5402C1.36694 59.2826 2.57037 64.3558 5.01132 68.7277C7.44665 73.0895 10.8527 76.4955 15.2144 78.9308C19.5863 81.3718 24.6595 82.5752 30.4019 82.5752C36.1444 82.5752 41.2176 81.3718 45.5894 78.9308C49.9512 76.4955 53.3572 73.0895 55.7926 68.7277C58.2335 64.3558 59.4369 59.2826 59.4369 53.5402V30.8602C59.4369 25.1178 58.2335 20.0446 55.7926 15.6727C53.3572 11.3109 49.9512 7.9049 45.5894 5.46957C41.2176 3.02862 36.1444 1.8252 30.4019 1.8252C24.6595 1.8252 19.5863 3.02862 15.2144 5.46956ZM36.7212 65.3825C34.8555 66.4762 32.7572 67.0302 30.4019 67.0302C28.0467 67.0302 25.9484 66.4762 24.0827 65.3825C22.2002 64.279 20.7131 62.7919 19.6096 60.9095C18.5159 59.0437 17.9619 56.9455 17.9619 54.5902V29.7052C17.9619 27.3499 18.5159 25.2516 19.6096 23.3859C20.7131 21.5035 22.2002 20.0164 24.0827 18.9129C25.9484 17.8192 28.0467 17.2652 30.4019 17.2652C32.7572 17.2652 34.8555 17.8192 36.7212 18.9129C38.6037 20.0164 40.0908 21.5035 41.1942 23.3859C42.288 25.2516 42.8419 27.3499 42.8419 29.7052V54.5902C42.8419 56.9455 42.288 59.0437 41.1942 60.9095C40.0908 62.7919 38.6037 64.279 36.7212 65.3825Z" stroke="#FFCC24" stroke-width="2"/>
</svg>

<?xml version="1.0" encoding="utf-8"?>
<!-- Generator: Adobe Illustrator 26.3.1, SVG Export Plug-In . SVG Version: 6.00 Build 0)  -->
<svg version="1.1" id="Слой_1" xmlns="http://www.w3.org/2000/svg" xmlns:xlink="http://www.w3.org/1999/xlink" x="0px" y="0px"
	 viewBox="0 0 122 84" style="enable-background:new 0 0 122 84;" xml:space="preserve">
<style type="text/css">
	.st0{fill:#FFFFFF;stroke:#FFCC24;stroke-width:2;}
</style>
<path class="st0" d="M78.1,79.6L77.5,81H79h15.4h0.7l0.3-0.6l25.3-62.2l0.1-0.2v-0.2V4.4v-1h-1H72.1h-1v1v13.4v1h1h30.9L78.1,79.6z
	 M15.2,5.5l0.5,0.9L15.2,5.5C10.9,7.9,7.4,11.3,5,15.7C2.6,20,1.4,25.1,1.4,30.9v22.7c0,5.7,1.2,10.8,3.6,15.2
	c2.4,4.4,5.8,7.8,10.2,10.2c4.4,2.4,9.4,3.6,15.2,3.6c5.7,0,10.8-1.2,15.2-3.6c4.4-2.4,7.8-5.8,10.2-10.2c2.4-4.4,3.6-9.4,3.6-15.2
	V30.9c0-5.7-1.2-10.8-3.6-15.2C53.4,11.3,50,7.9,45.6,5.5C41.2,3,36.1,1.8,30.4,1.8C24.7,1.8,19.6,3,15.2,5.5z M36.7,65.4
	c-1.9,1.1-4,1.6-6.3,1.6c-2.4,0-4.5-0.6-6.3-1.6c-1.9-1.1-3.4-2.6-4.5-4.5c-1.1-1.9-1.6-4-1.6-6.3V29.7c0-2.4,0.6-4.5,1.6-6.3
	c1.1-1.9,2.6-3.4,4.5-4.5c1.9-1.1,4-1.6,6.3-1.6c2.4,0,4.5,0.6,6.3,1.6c1.9,1.1,3.4,2.6,4.5,4.5c1.1,1.9,1.6,4,1.6,6.3v24.9
	c0,2.4-0.6,4.5-1.6,6.3C40.1,62.8,38.6,64.3,36.7,65.4z"/>
</svg>
